src/assets/icons/download_text.svg

<svg width="24" height="24" viewBox="0 0 24 24" fill="none" xmlns="http://www.w3.org/2000/svg">
<path d="M11.9893 2C11.4373 2 10.9893 2.4477 10.9893 3V13.562L7.98926 10.594L6.58326 12L11.2703 16.719C11.6613 17.109 12.3173 17.109 12.7083 16.719L17.3953 12L15.9893 10.594L12.9893 13.562V3C12.9893 2.4477 12.5413 1.9999 11.9893 2ZM3.98926 14C3.43726 14 2.98926 14.448 2.98926 15V17C2.98926 19.209 4.78026 21 6.98926 21H16.9893C19.1983 21 20.9893 19.209 20.9893 17V15C20.9893 14.448 20.5413 14 19.9893 14C19.4373 14 18.9893 14.448 18.9893 15V17C18.9893 18.105 18.0943 19 16.9893 19H6.98926C5.88426 19 4.98926 18.105 4.98926 17V15C4.98926 14.448 4.54126 14 3.98926 14Z" fill="black"/>
</svg>

<svg xmlns="http://www.w3.org/2000/svg" width="24" height="24" fill="none"><path fill="#000" d="M11.99 2a1 1 0 0 0-1 1v10.562l-3-2.968L6.582 12l4.687 4.719a1.03 1.03 0 0 0 1.438 0L17.395 12l-1.406-1.406-3 2.968V3a1 1 0 0 0-1-1m-8 12a1 1 0 0 0-1 1v2a4 4 0 0 0 4 4h10a4 4 0 0 0 4-4v-2a1 1 0 0 0-2 0v2a2 2 0 0 1-2 2h-10a2 2 0 0 1-2-2v-2a1 1 0 0 0-1-1"/></svg>
